X:427
T: Vor der Schlacht (146), S. 325
N: T0315
O: Luxemburg
S: Singendes Volk, Esch-Alzette 1937, posth.]
N: Stegen, hhh Pletschette (Lehrer), Rmelingen, 1916
R: historische, Kriegs- und Soldatenlieder]
M: 4/4
L: 1/8
K: Bb
 | F2DEF3B | AGF2GFz2 |
B3AGABc | d2c2B2z2 |
d3ceedd | ccB2F2z2 |
B3BccBB | cc2dz4 |
d3ceedd | ccB2F2z2 |
B3BccBB | ccB2z4

@@@ Tune index: 8481
